X:82
T:Fair haired Mary
R:Reel
O:Ireland
S:O'Neill's 1474
B:O'Neill's 1474
Z:Transcription:Bob Safranek, chords:Mike Long
M:C|
L:1/8
K:Bb
"Gm"Gdd^c "(Eb)"d2=cB|"F"AFcF dFcF|"Gm"Gdd^c d2d=e|"F"fdcA dcBA|\
"Gm"Gdd^c "(Eb)"d2=cB|"F"AFcF dFcF|
"Gm"Gdd^c d2d=e|"F"fdcA "Gm"AGG2:|\
|:"Gm"g2dg g2ag|"F"fdd=e f2ef|"Gm"g2g^f g2ag|
"F"fdcA dBcA|\
"Gm"gdd^f g2ag|"F"fdd=e f2^fg|"Gm"abag "Eb"^fgag|"F"fdcA AGG2:|
